X: 10
T: Ad Mortem Festinamus
B: Llibre Vermeil
F:http://www.cervantesvirtual.com/s3/BVMC_OBRAS/ff6/fe3/e28/2b1/11d/fac/c70/021/85c/e60/64/mimes/imagenes/ff6fe3e2-82b1-11df-acc7-002185ce6064_190.jpg
F:http://www.cervantesvirtual.com/s3/BVMC_OBRAS/ff6/fe3/e28/2b1/11d/fac/c70/021/85c/e60/64/mimes/imagenes/ff6fe3e2-82b1-11df-acc7-002185ce6064_28.jpg
Z:Ali Corbin <ali.corbin:gmail.com>
N: 
M: 6/8
L: 1/8
Q: 1/8=240
K: C
V:1
%Staff 1
%%MIDI program 74
%
  F2  G   A2  F| G2  G C2    D |F2 D  E2  C| D2 E/D/ C2    D |F2 D  E2  C| D2 E/D/ C3 ||
w:Ad mor-tem fe-sti-na-mus, pec-ca-re de-si-sta-**   mus. pec-ca-re de-si-sta-**   mus.
    c2  A c2 e/d/|c/B/ A2 G2 F| A2  F   G2  E |F2 A/G/ F3|
w:Scri-be-re pro-*po-* su-i de con-temp-tu mun-da-**   no,
  c2  A  c2 e/d/|c/B/ A2 G2  F|  A2   F  G2 E |F2 A/G/ F3|
w:ut de-gen-tes* se-* cu-li non mul-cen-tur in va-**   no.
   F2  G  A2  F| G2  G C2 D| F2   D  E2  C|  D2 E/D/  C2 D| F2   D  E2  C|  D2 E/D/  C3 ||
w:Iam est ho-ra sur-ge-re a somp-no mor-tis pra-**    vo. a somp-no mor-tis pra-**    vo.

%%multicol start
%%leftmargin  6cm
%%rightmargin 6cm
%%begintext

Ad mortem festinamus, peccare desistamus.
%%endtext
%%multicol new
%%leftmargin  2cm
%%rightmargin 7cm
%%vskip 1cm
%%begintext

Scribere proposui 
de contemptu mundano,
ut degentes seculi 
non mulcentur in vano.
Iam est hora surgere 
a sompno mortis pravo.

Vita brevis breviter 
in brevi finietur
Mors venit velociter 
quae neminem veretur
Omnia mors perimit 
et nulIi miseretur.

Ni conversus fueris 
et sicut puer factus,
et vitam mutaveris 
in meliores actus,
intrare non poteris 
regnum Dei beatus.
%%endtext
%%multicol new
%%leftmargin  8cm
%%rightmargin 8cm
%%vskip 1cm
%%begintext

Tuba cum sonuerit, 
dies erit extrema
et iudex advenerit, 
vocabit sempiterna
electos in patria 
prescitos ad inferna.

Quam felices fuerint 
qui cum Christo regnabunt,
facie ad faciem 
sic eum spectabunt,
Sanctus, sanctus Dominus 
Sabaoth conclamabunt.

Et quam tristes fuerint 
qui eterne peribunt,
pene non deficient  
nec propter has obibunt.
Heu, heu, heu, miseri, 
nunquam inde exibunt.
%%endtext
%%multicol new
%%leftmargin  14cm
%%rightmargin 2cm
%%vskip 1cm
%%begintext

Cuncti reges seculi 
et in mundo magnates
advertant et clerici 
omnesque potestates:
fiant velut parvuli 
dimittant vanitates.

Heu, fratres karissimi, 
si digne contemplemus
passionem Domini, 
amara et si flemus,
ut pupillam oculi 
servabit ne peccemus.

Alma Virgo virginum, 
in celis coronata
apud tuum filium 
sis nobis advocata.
Et post hoc exilium 
occurrens mediata.
%%endtext
%%multicol new
%%leftmargin  8cm
%%rightmargin 8cm
%%vskip 14.5cm
%%begintext

Vila cadaver eris
Cur non peccare vereris?
Cur intumescere quaeris?
Ut quid pecuniam quaeris?
Quid vestes pomposas geris?
Ut quid honores quaeris?
Cur non paenitens confiteris?
Contra proximum non laeteris?
%%endtext
%%multicol end
